X: 23411
T: Les Beaux Jours
R: barndance
M: 4/4
K: Dminor
|:"Dm"A,2DE FEDA,|"Bb"B,DFA cBGE|"C"EDEG AGED|EGAG ED"(Eo7)"CD|
"Dm"A,2DE FEDA,|"Bb"B,DFA cBGE|"C"EDEG AGED|EGAG E2z2:|
K:Dmix
|:"D"a3g f2d2|c2"C"A2 G2A2|"D"a3g fede|Ac"C"eg fede|
"D"a3g f2d2|c2"C"A2 G2E2|"G"EDEG AGED|EGAG EDCD:|

